X:2013
T:Bonny Green Garters
R:Jig
C:Trad. Morris
O:Headington England
Z:Paul Hardy's Session Tunebook 2022 (see www.paulhardy.net). Creative Commons cc by-nc-sa licenced.
P:A.(AB)4
M:6/8
L:1/8
Q:3/8=90
K:G
P:A
d|"G"d>cB AGF|"C"G>AB cde|"G"d2d dcB|1"D"B3 A2:|2"D"A3 "G"G2||
P:B
d|"G"d>cB AGF|"C"G3 "D"A2 d|"G"d>cB AGF|"Em"G3 "D"A2 d|
"G"d>cB AGF|"C"G>AB cde|"G"ded dcB|"D"A3 "G"G2|]

